48x48/apps/applications-photography.svg

<svg height="48" width="48" xmlns="http://www.w3.org/2000/svg"><g transform="translate(2 -2)"><path d="m22 5.5c-11.311 0-20.5 9.189-20.5 20.5s9.189 20.5 20.5 20.5 20.5-9.189 20.5-20.5-9.189-20.5-20.5-20.5z" fill="none" opacity=".15" stroke="#000"/><path d="m22 6c-11.035 0-20 8.965-20 20s8.965 20 20 20 20-8.965 20-20-8.965-20-20-20z" fill="#f9f9f9"/><path d="m22 12c-7.725 0-14 6.276-14 14 0 7.725 6.276 14 14 14 7.725 0 14-6.276 14-14 0-7.725-6.276-14-14-14z" fill="#e6e6e6"/><path d="m34 26a12 12 0 0 1 -24 0 12 12 0 1 1 24 0z" fill="#ccc"/><path d="m22 23.172a2.83 2.83 0 0 0 -2.828 2.828 2.83 2.83 0 0 0 2.828 2.828 2.83 2.83 0 0 0 2.828-2.828 2.83 2.83 0 0 0 -2.828-2.828z" fill="none" opacity=".5"/><path d="m29.5 26a7.5 7.5 0 1 0 -15 0 7.5 7.5 0 0 0 15 0z" fill="none" opacity=".5" stroke="#fff"/><circle cx="22" cy="26" opacity=".5" r="7"/><circle cx="22" cy="26" opacity=".5" r="5.5"/><path d="m19.796 23.669a1.093 1.144 0 0 1 -2.187 0 1.093 1.144 0 1 1 2.187 0z" fill="#feffff" opacity=".4"/></g></svg>

<svg xmlns="http://www.w3.org/2000/svg" width="48" height="48"><g transform="translate(2 -2)"><path d="M22 5.5C10.689 5.5 1.5 14.689 1.5 26S10.689 46.5 22 46.5 42.5 37.311 42.5 26 33.311 5.5 22 5.5z" style="marker:none" color="#000" overflow="visible" opacity=".15" fill="none" stroke="#000"/><path d="M22 6C10.965 6 2 14.965 2 26s8.965 20 20 20 20-8.965 20-20S33.035 6 22 6z" style="marker:none" color="#000" overflow="visible" fill="#f9f9f9"/><path d="M22 12c-7.725 0-14 6.276-14 14 0 7.725 6.276 14 14 14 7.725 0 14-6.276 14-14 0-7.725-6.276-14-14-14z" style="marker:none" color="#000" overflow="visible" fill="#e6e6e6"/><path d="M34 26a12 12 0 0 1-24 0 12 12 0 1 1 24 0z" style="marker:none" color="#000" overflow="visible" fill="#ccc"/><path d="M22 23.172A2.83 2.83 0 0 0 19.172 26 2.83 2.83 0 0 0 22 28.828 2.83 2.83 0 0 0 24.828 26 2.83 2.83 0 0 0 22 23.172z" opacity=".5" fill="none"/><path d="M29.5 26a7.5 7.5 0 1 0-15 0 7.5 7.5 0 0 0 15 0z" style="marker:none" color="#000" overflow="visible" opacity=".5" fill="none" stroke="#fff"/><circle r="7" cy="26" cx="22" opacity=".5" paint-order="markers stroke fill"/><circle cx="22" cy="26" r="5.5" opacity=".5" paint-order="markers stroke fill"/><path d="M19.796 23.669a1.093 1.144 0 0 1-2.187 0 1.093 1.144 0 1 1 2.187 0z" style="marker:none" color="#000" overflow="visible" opacity=".4" fill="#feffff"/></g></svg>
